X: 11108
T: Duke Of Cumberland's
R: reel
M: 4/4
K: Gmixolydian
|:A|GB/c/dc BGGB|GB/c/dB AFFA|GB/c/dB ecdB|cAfc BGG:|
|:c|B/c/d gd BGGB|A/B/c fc AFFc|B/c/d gd ecdB|cAfc BGG:|

